<?xml version="1.0" encoding="UTF-8"?>
<map version="1.10" tiledversion="1.11.2" orientation="orthogonal" renderorder="right-down" width="1280" height="720" tilewidth="1" tileheight="1" infinite="0" nextlayerid="5" nextobjectid="339">
 <tileset firstgid="1" source="Brick_1.tsx"/>
 <tileset firstgid="2" source="Background_Arkanoid.tsx"/>
 <tileset firstgid="3" source="Brick_2.tsx"/>
 <tileset firstgid="4" source="Brick_3.tsx"/>
 <tileset firstgid="5" source="Brick_Indestructible.tsx"/>
 <tileset firstgid="6" source="Chest.tsx"/>
 <objectgroup id="4" name="Background" locked="1">
  <object id="19" gid="2" x="0.666667" y="719.833" width="1280" height="720.667"/>
 </objectgroup>
 <objectgroup id="3" name="Bricks">
  <object id="299" gid="5" x="302" y="525" width="753" height="30"/>
  <object id="301" gid="6" x="592" y="175" width="57" height="63"/>
  <object id="302" gid="1" x="71" y="80" width="85" height="30"/>
  <object id="305" gid="3" x="71" y="150" width="85" height="30"/>
  <object id="308" gid="4" x="836" y="162" width="177" height="104"/>
  <object id="312" gid="5" x="35" y="425" width="665" height="30"/>
  <object id="313" gid="5" x="35" y="525" width="130" height="30"/>
  <object id="314" gid="1" x="192" y="525" width="85" height="30"/>
  <object id="317" gid="5" x="765.5" y="208" width="23" height="178"/>
  <object id="318" gid="5" x="766.5" y="234" width="292" height="25"/>
  <object id="319" gid="6" x="55.5" y="490.5" width="57" height="63"/>
  <object id="321" gid="4" x="942.5" y="426" width="85" height="30"/>
  <object id="324" gid="1" x="180" y="80" width="85" height="30"/>
  <object id="325" gid="1" x="291" y="80" width="85" height="30"/>
  <object id="326" gid="1" x="400" y="80" width="85" height="30"/>
  <object id="327" gid="3" x="180" y="150" width="85" height="30"/>
  <object id="328" gid="3" x="291" y="150" width="85" height="30"/>
  <object id="329" gid="3" x="400" y="150" width="85" height="30"/>
  <object id="330" gid="1" x="71" y="220" width="85" height="30"/>
  <object id="331" gid="1" x="180" y="220" width="85" height="30"/>
  <object id="332" gid="1" x="291" y="220" width="85" height="30"/>
  <object id="333" gid="1" x="400" y="220" width="85" height="30"/>
  <object id="335" gid="6" x="132.5" y="343.5" width="57" height="63"/>
  <object id="336" gid="6" x="250.5" y="342.5" width="57" height="63"/>
  <object id="337" gid="6" x="360.5" y="341.5" width="57" height="63"/>
 </objectgroup>
</map>
